!!!COM: Hieronymus Praetorius
!!!OPR: Organ Magnificats on the Eight Tones
!!!OTL: Magnificat sexti toni (third verse)
!!!YOR: Clare G. Rayner (editor)
!!!YOR: American Institute of Musicology, 1963, pp. 50-54.
!! N.B. Canon is broken at places marked.
!! N.B. Canonic voices are exchanged at places.
**kern	**kern	**kern	**kern	**kern
*CF2	*CF	*freeV	*conseq	*guida
*k[b-]	*k[b-]	*k[b-]	*k[b-]	*k[b-]
*M4/4	*M4/4	*M4/4	*M4/4	*M4/4
=1-	=1-	=1-	=1-	=1-
1r	[1F	1r	2r	8cc
.	.	.	.	8dd
.	.	.	.	8ee
.	.	.	.	8cc
.	.	.	8c	4ff
.	.	.	8d	.
.	.	.	8e	4ee
.	.	.	8c	.
=2	=2	=2	=2	=2
1r	1F]	1r	4f	4dd
.	.	.	4e	4cc
.	.	.	4d	4b
.	.	.	4c	4a
=3	=3	=3	=3	=3
1r	[1G	1r	4B	8dd
.	.	.	.	8ee
.	.	.	4A	8ff
.	.	.	.	8dd
.	.	.	8d	4gg
.	.	.	8e	.
.	.	.	8f	4ff
.	.	.	8d	.
=4	=4	=4	=4	=4
1r	1G]	1r	4g	4ee
.	.	.	4f	4dd
.	.	.	4e	4cc
.	.	.	4d	4b
=5	=5	=5	=5	=5
1r	1A	1r	4c	8ee
.	.	.	.	8ff
.	.	.	4B	8gg
.	.	.	.	8ee
.	.	.	8e	4aa
.	.	.	8f	.
.	.	.	8g	4gg
.	.	.	8e	.
=6	=6	=6	=6	=6
1r	[1A	1r	4a	4ff
.	.	.	4g	2ee
.	.	.	4f	.
.	.	.	8e	[4dd
.	.	.	8e	.
=7	=7	=7	=7	=7
1r	1A]	1r	4e	4dd]
.	.	.	4d	8cc#
.	.	.	.	8b
.	.	.	2e	2cc#
!CF2	!CF	!freeV	!conseq	!guida
*	*x	*x	*	*
!CF2	!freeV	!CF	!conseq	!guida
*	*	*x	*x	*
!CF2	!freeV	!conseq	!CF	!guida
*	*	*	*x	*x
!CF2	!freeV	!conseq	!guida	!CF
*	*x	*x	*	*
!CF2	!conseq	!freeV	!guida	!CF
=8	=8	=8	=8	=8
[1BB-	2d	1r	8f	1dd
.	.	.	8g	.
.	.	.	8a	.
.	.	.	8f	.
.	8F	.	4b-	.
.	8G	.	.	.
.	8A	.	4a	.
.	8F	.	.	.
=9	=9	=9	=9	=9
1BB-]	4B-	1r	4g	1r
.	4A	.	4f	.
.	4G	.	4e	.
.	4F	.	4d	.
=10	=10	=10	=10	=10
[1C	4E	1r	8g	1r
.	.	.	8a	.
.	4D	.	8b-	.
.	.	.	8g	.
.	8G	.	4cc	.
.	8A	.	.	.
.	8B-	.	4b-	.
.	8G	.	.	.
=11	=11	=11	=11	=11
1C]	4c	1r	4a	1r
.	4B-	.	4g	.
.	4A	.	4f	.
.	4G	.	4e	.
=12	=12	=12	=12	=12
[1D	4F	1r	8a	1r
.	.	.	8b-	.
.	4E	.	8cc	.
.	.	.	8a	.
.	8A	.	4dd	.
.	8B-	.	.	.
.	8c	.	4cc	.
.	8A	.	.	.
=13	=13	=13	=13	=13
1D]	4d	1r	4b-	1r
.	4c	.	4a	.
.	4B-	.	4g	.
.	8A	.	4f	.
.	8B-	.	.	.
=14	=14	=14	=14	=14
[1C	4G	1c	8e	1r
.	.	.	8f	.
.	4F	.	8g	.
.	.	.	8e	.
.	8E	.	4a	.
.	8F	.	.	.
.	8G	.	[4g	.
.	8E	.	.	.
=15	=15	=15	=15	=15
1C]	4.A	2r	8g]	1r
.	.	.	8a	.
.	.	.	[4f	.
.	8B-	.	.	.
.	2G	2c	8f]	.
.	.	.	16e	.
.	.	.	16d	.
.	.	.	16e	.
.	.	.	16f	.
.	.	.	16d	.
.	.	.	16e	.
!CF2	!conseq	!freeV	!guida	!CF
*	*x	*x	*	*
!CF2	!freeV	!conseq	!guida	!CF
*	*	*	*x	*x
!CF2	!freeV	!conseq	!CF	!guida
*	*	*x	*x	*
!CF2	!freeV	!CF	!conseq	!guida
*	*x	*x	*	*
!CF2	!CF	!freeV	!conseq	!guida
=16	=16	=16	=16	=16
1r	[1F	2c	1r	1f
.	.	8c	.	.
.	.	8d	.	.
.	.	8e	.	.
.	.	8c	.	.
=17	=17	=17	=17	=17
[1FF	1F_	4f	1r	8cc
.	.	.	.	8dd
.	.	4e	.	8ee
.	.	.	.	8cc
*	*	*x	*x	*
!CF2	!CF	!conseq	!freeV	!guida
.	.	8c	.	4ff
.	.	8d	.	.
.	.	8e	.	4ee
.	.	8c	.	.
=18	=18	=18	=18	=18
1FF]	1F]	4f	1r	4dd
.	.	4e	.	4cc
.	.	4d	.	4b-
.	.	4c	.	4a
=19	=19	=19	=19	=19
[1GG	2r	4B-	1r	8dd
.	.	.	.	8ee
.	.	4A	.	8ff
.	.	.	.	8dd
.	[2G	8d	.	4gg
.	.	8e	.	.
.	.	8f	.	4ff
.	.	8d	.	.
=20	=20	=20	=20	=20
1GG]	2G]	4g	2r	4ee
.	.	4f	.	4dd
.	2r	4e	4g	4cc
.	.	4d	4f	4b-
=21	=21	=21	=21	=21
[1AA	1r	4c	4e	8ee
.	.	.	.	8ff
.	.	4B-	4d	8gg
.	.	.	.	8ee
!CF2	!CF	!conseq	!freeV	!guida
*	*	*x	*x	*
!CF2	!CF	!freeV	!conseq	!guida
.	.	2A	8e	4aa
.	.	.	8f	.
.	.	.	8g	4gg
.	.	.	8e	.
=22	=22	=22	=22	=22
1AA]	1A	1r	4a	4ff
.	.	.	4g	2ee
.	.	.	4f	.
.	.	.	8e	[4dd
.	.	.	8d	.
=23	=23	=23	=23	=23
1AA	1A	4e	2.a?	4dd]
.	.	4d	.	8cc#
.	.	.	.	8bn
.	.	2e	.	2cc#
.	.	.	4g?	.
=24	=24	=24	=24	=24
1r	1A	1d	2f#?	2dd
.	.	.	4f#?	4a
.	.	.	4g?	4bn
!CF2	!CF	!freeV	!conseq	!guida
*	*	*x	*x	*
!CF2	!CF	!conseq	!freeV	!guida
*	*x	*x	*	*
!CF2	!conseq	!CF	!freeV	!guida
=25	=25	=25	=25	=25
1AA	4A	1r	[1a	4cc#
.	4Bn	.	.	4dd
.	4c#	.	.	4ee
.	4d	.	.	4ff
=26	=26	=26	=26	=26
1AA	4e	1r	1a]	4ee
.	4f	.	.	4.aa
.	4e	.	.	.
.	.	.	.	8gg
.	[4a	.	.	8ff
.	.	.	.	8gg
=27	=27	=27	=27	=27
1AA	8a]	1r	2r	4ee
.	8g	.	.	.
.	8f	.	.	4dd
.	8g	.	.	.
.	4e	.	4r	4cc#
.	4d	.	4f	8a
.	.	.	.	8bn
=28	=28	=28	=28	=28
1AA	4c#	1r	1e	8cc#
.	.	.	.	8bn
.	8A	.	.	8cc#
.	8Bn	.	.	8dd
.	8c#	.	.	4ee
.	8B	.	.	.
.	8c#	.	.	4ff
.	8d	.	.	.
=29	=29	=29	=29	=29
1AA	4e	1r	2.a	4ee
.	4f	.	.	4dd
.	4e	.	.	4cc
.	8d	.	4f#	8bn
.	8c	.	.	8a
=30	=30	=30	=30	=30
[1GG	4d	1r	[1g	4bn
.	4c	.	.	4cc
.	4Bn	.	.	4dd
.	4c	.	.	4ee-
=31	=31	=31	=31	=31
1GG]	4d	1r	2.g]	4dd
.	4e-	.	.	2cc
.	2d	.	.	.
.	.	.	8g	4bn
.	.	.	8f	.
!CF2	!conseq	!CF	!freeV	!guida
*	*x	*x	*	*
!CF2	!CF	!conseq	!freeV	!guida
*x	*x	*	*	*
!CF	!CF2	!conseq	!freeV	!guida
*	*x	*x	*	*
!CF	!conseq	!CF2	!freeV	!guida
!! Suspension of canonic writing.
=32	=32	=32	=32	=32
[1AA	1a	1r	4e	4cc#
.	.	.	4d	4dd
.	.	.	4c#	4ee
.	.	.	4d	4ff
=33	=33	=33	=33	=33
1AA]	2a	1r	4e	4ee
.	.	.	4f	2dd
.	4.a	.	2e	.
.	.	.	.	4cc#
.	8g	.	.	.
=34	=34	=34	=34	=34
[1BB-	2.f	1r	2.d	2dd
.	.	.	.	[2ff
.	4e	.	4e	.
=35	=35	=35	=35	=35
1BB-]	1d	1r	2f	2ff]
.	.	.	2g	4ee
.	.	.	.	4dd
=36	=36	=36	=36	=36
[1AA	2e	1r	1a	[1cc#
!! Fugual section.
.	2A	.	.	.
=37	=37	=37	=37	=37
1AA]	2A	1r	1e	1cc#]
.	2A	.	.	.
=38	=38	=38	=38	=38
1r	2G	1r	2e	1r
.	2A	.	2e	.
=39	=39	=39	=39	=39
1r	2B-	1r	2d	1r
.	4A	.	2e	.
.	4G	.	.	.
=40	=40	=40	=40	=40
1r	8F	1r	1f	1a
.	8E	.	.	.
.	8D	.	.	.
.	8E	.	.	.
.	8F	.	.	.
.	8G	.	.	.
.	8A	.	.	.
.	8Bn	.	.	.
=41	=41	=41	=41	=41
1r	8c	1r	2e	2a
.	8A	.	.	.
.	8Bn	.	.	.
.	8c	.	.	.
.	8d	.	2f	2a
.	8c#	.	.	.
.	8d	.	.	.
.	8cn	.	.	.
=42	=42	=42	=42	=42
1r	4Bn	1r	4d	2g
.	2c	.	2e	.
.	.	.	.	2a
.	4d	.	4f#	.
=43	=43	=43	=43	=43
1r	8G	1r	1g	1b-
.	8A	.	.	.
.	8B-	.	.	.
.	8A	.	.	.
.	8G	.	.	.
.	8A	.	.	.
.	8B-	.	.	.
.	8c	.	.	.
=44	=44	=44	=44	=44
1D	8d	1r	2.f#	2.a
.	8A	.	.	.
.	8B-	.	.	.
.	8c	.	.	.
.	8d	.	.	.
.	8A	.	.	.
.	8c	.	4e	4g
.	8B-	.	.	.
=45	=45	=45	=45	=45
2D	8A	1r	2d	8f#
.	8G	.	.	8e
.	8F#	.	.	8d
.	8G	.	.	8e
2D	8A	.	2r	8f#
.	8Bn	.	.	8g
.	8c	.	.	8a
.	8d	.	.	8bn
=46	=46	=46	=46	=46
2C	2e-	1r	2r	8.cc
.	.	.	.	16b-
.	.	.	.	8.g
.	.	.	.	16a
2D	2F	.	[2d	8.b-
.	.	.	.	16a
.	.	.	.	8.f
.	.	.	.	16a
=47	=47	=47	=47	=47
1E-	1G	1r	4d]	8g
.	.	.	.	16ee-
.	.	.	.	16ff
.	.	.	4B-	16gg
.	.	.	.	16ff
.	.	.	.	16ee
.	.	.	.	16dd
.	.	.	2c	16ee-
.	.	.	.	16dd
.	.	.	.	16cc
.	.	.	.	16b-
.	.	.	.	16cc
.	.	.	.	16b-
.	.	.	.	16a
.	.	.	.	16g
=48	=48	=48	=48	=48
1D	2A	1d	2r	2f#
.	2A	.	4f#	4a
.	.	.	4g	4bn
=49	=49	=49	=49	=49
1r	2A	8e	1a	2cc
.	.	8d	.	.
.	.	8c	.	.
.	.	8d	.	.
.	2A	8e	.	2cc
.	.	8d	.	.
.	.	8e	.	.
.	.	8f	.	.
=50	=50	=50	=50	=50
1r	2G	8g	1r	2b-
.	.	8f	.	.
.	.	8d	.	.
.	.	8e-	.	.
.	8A	2f	.	2a
.	8F	.	.	.
.	8G	.	.	.
.	8A	.	.	.
=51	=51	=51	=51	=51
1r	1B-	4f	1r	4a
.	.	4e	.	8g
.	.	.	.	8f
.	.	4d	.	8g
.	.	.	.	8a
.	.	4e	.	8b-
.	.	.	.	8g
=52	=52	=52	=52	=52
1AA	[1A	2d	2f	[1a
.	.	4c#	4e	.
.	.	4Bn	4d	.
=53	=53	=53	=53	=53
2AA	2A]	1c#	1e	1a]
2AA	2E	.	.	.
=54	=54	=54	=54	=54
2GG	2B	2B-	4d	1r
.	.	.	4e	.
2AA	2C	[2A	[2f	.
=55	=55	=55	=55	=55
1BB-	1D	4A]	16f]	1r
.	.	.	16d	.
.	.	.	16e	.
.	.	.	16f	.
.	.	4F	16g	.
.	.	.	16f	.
.	.	.	16g	.
.	.	.	16a	.
.	.	2G	16b-	.
.	.	.	16a	.
.	.	.	16g	.
.	.	.	16f	.
.	.	.	16g	.
.	.	.	16f	.
.	.	.	16e	.
.	.	.	16d	.
=56	=56	=56	=56	=56
1AA	4E	4e	4r	4r
.	4A	4c#	4e	4a
.	4A	4c#	4e	4a
.	4A	4c#	4e	4a
=57	=57	=57	=57	=57
1r	1D	1A	4r	4.f#
.	.	.	4d	.
.	.	.	.	8g
.	.	.	4d	8a
.	.	.	.	8g
.	.	.	4d	8a
.	.	.	.	8bn
=58	=58	=58	=58	=58
1r	1r	1r	4c	4cc
.	.	.	4d	2b-
.	.	.	2e-	.
.	.	.	.	8a
.	.	.	.	8g
=59	=59	=59	=59	=59
1r	4r	1r	4d	4a
.	4A	.	8c	8a
.	.	.	8d	8bn
.	4A	.	8e	8cc
.	.	.	8d	8b
.	4A	.	8e	8cc
.	.	.	8f	8a
=60	=60	=60	=60	=60
1r	4G	1r	4g	4b-
.	4A	.	4c	4.a
.	2B-	.	2d	.
.	.	.	.	16g
.	.	.	.	16f
.	.	.	.	16g
.	.	.	.	16a
.	.	.	.	16b-
.	.	.	.	16g
=61	=61	=61	=61	=61
4r	2A	1r	4c#	4a
4D	.	.	8A	8f#
.	.	.	8Bn	8g
4D	2r	.	8cn	8a
.	.	.	8B	8g
4D	.	.	8c	8a
.	.	.	8d	8bn
=62	=62	=62	=62	=62
4C	4r	1r	4e-	4cc
4D	4F	.	2d	4.b-
2E-	2G	.	.	.
.	.	.	.	16a
.	.	.	.	16g
.	.	.	4c	16a
.	.	.	.	16g
.	.	.	.	16f#
.	.	.	.	16en
=63	=63	=63	=63	=63
1D	1A	1r	4d	2.f#
.	.	.	4d	.
.	.	.	4d	.
.	.	.	4d	4a
=64	=64	=64	=64	=64
1r	1r	1r	4c	4a
.	.	.	4d	4a
.	.	.	4e-	4g
.	.	.	8d	4a
.	.	.	8c	.
=65	=65	=65	=65	=65
1r	1r	1r	4B-	4b-
.	.	.	4c	8a
.	.	.	.	8g
.	.	.	4d	4f
.	.	.	8c	4g
.	.	.	8B-	.
=66	=66	=66	=66	=66
2A	2r	1r	4c	4a
.	.	.	2d	8g
.	.	.	.	8f
4A	4r	.	.	4e
4A	4e	.	4c#	4a
=67	=67	=67	=67	=67
4G	4e	1r	1r	4b-
4A	4e	.	.	4a
2B-	4d	.	.	[2dd
.	4e	.	.	.
=68	=68	=68	=68	=68
1A	4f	1r	4r	4dd]
.	4e	.	4a	8cc#
.	.	.	.	8bn
.	4e	.	4a	2cc#
.	4e	.	4a	.
=69	=69	=69	=69	=69
1r	4d	1d	4.f#	2dd
.	4D	.	.	.
.	.	.	8g	.
.	4D	.	8a	2r
.	.	.	8g	.
.	4D	.	8a	.
.	.	.	8bn	.
=70	=70	=70	=70	=70
1r	4C	4e-	4cc	1r
.	4D	4.d	2b-	.
.	2E-	.	.	.
.	.	8B-	.	.
.	.	4c	8a	.
.	.	.	8g	.
=71	=71	=71	=71	=71
1r	1D	4d	4f#	4r
.	.	4d	4fn	4a
.	.	4d	4f	4a
.	.	4c	4e	4a
=72	=72	=72	=72	=72
1r	1r	4B-	8d	4g
.	.	.	8e	.
.	.	4A	2f	4a
.	.	2G	.	2b-
.	.	.	4e	.
=73	=73	=73	=73	=73
1r	1r	4F	2.f	2.a
.	.	8D	.	.
.	.	8E	.	.
.	.	4F	.	.
.	.	4G	8e	8g
.	.	.	8d	8f
=74	=74	=74	=74	=74
!! Canonic writing resumes.
!CF	!conseq	!CF2	!freeV	!guida
[1AA	2r	1A	2c#	4e
.	.	.	.	4e
.	4r	.	4r	4d
.	4E	.	4c#	4e
=75	=75	=75	=75	=75
1AA_	4D	1r	4d	4f
.	4E	.	4c#	4e
.	4F	.	4r	4r
.	4E	.	4c#	4e
=76	=76	=76	=76	=76
1AA]	4r	1r	4Bn	4d
.	4E	.	4c#	4e
.	4D	.	4d	4f
.	4E	.	8c	[4e
.	.	.	8B-	.
=77	=77	=77	=77	=77
1AA	4.F	1r	2A	8e]
.	.	.	.	8f
.	8G?	.	.	4.d
.	4.E?	.	2A	.
.	.	.	.	8e
.	.	.	.	4c#
.	8F#?	.	.	.
=78	=78	=78	=78	=78
[1GG	2G?	1r	4r	4r
.	.	.	4B-	4d
.	4r	.	4A	4c
.	4D	.	4B-	4d
=79	=79	=79	=79	=79
1GG_	4C	1r	4c	4e-
.	4D	.	4B-	4d
.	4E-	.	4r	4r
.	4D	.	4B-	4d
=80	=80	=80	=80	=80
1GG]	4r	1r	4A	4c
.	4D	.	4B-	4d
.	4C	.	4c	4e-
.	4D	.	8B-	[4d
.	.	.	8A	.
=81	=81	=81	=81	=81
1GG	4.E-	1r	[2G	8d]
.	.	.	.	8e-
.	.	.	.	4.c
.	8F?	.	.	.
.	2D?	.	4.G]	.
.	.	.	.	8d
.	.	.	.	4Bn
.	.	.	8F	.
=82	=82	=82	=82	=82
[1AA	2C?	1r	4E	4r
.	.	.	4c	4e
.	4r	.	4Bn	4d
.	4E	.	4c#	4e
=83	=83	=83	=83	=83
1AA_	4D	1r	4d	4f
.	4E	.	4c	4e
.	4F	.	4r	4r
.	4E	.	4c	4e
=84	=84	=84	=84	=84
1AA]	4r	1r	4Bn	4d
.	4E	.	4c#	4e
.	4D	.	4d	4f
.	4E	.	8cn	[4e
.	.	.	8B-	.
=85	=85	=85	=85	=85
1AA	4.F	1r	[2A	8e]
.	.	.	.	8f
.	.	.	.	4.d
.	8G?	.	.	.
.	2E?	.	4.A]	.
.	.	.	.	8e
.	.	.	.	4c#
.	.	.	8G	.
=86	=86	=86	=86	=86
[1BB-	2.D?	1r	2.F	4d
.	.	.	.	4f
.	.	.	.	4e
.	4F	.	8B-	4f
.	.	.	8A	.
=87	=87	=87	=87	=87
1BB-_	4E	1r	4G	4g
.	4F	.	4A	4f
.	4G	.	4B-	4r
.	4F	.	4A	4f
=88	=88	=88	=88	=88
1BB-]	4r	1r	4r	4e
.	4F	.	8B-	4f
.	.	.	8A	.
.	4E	.	4G	4g
.	4F	.	4A	8f
.	.	.	.	8e
=89	=89	=89	=89	=89
1BB-	4G	1r	4B-	4d
.	8F	.	8A	4e
.	8E	.	8G	.
.	4D	.	4F	4f
.	4E	.	4G	8e
.	.	.	.	8d
=90	=90	=90	=90	=90
[1AA	4F	1r	1A	4c#
.	8E	.	.	4d
.	8D	.	.	.
.	4C#	.	.	4e
.	4D	.	.	4f
=91	=91	=91	=91	=91
1AA]	4E	1r	1A	4e
.	4F	.	.	2d
.	2E	.	.	.
.	.	.	.	4c#
!! Suspension of canonic writing.
=92	=92	=92	=92	=92
4r	2D	1A	2d	1a
4D	.	.	.	.
4C#	4A	.	4e	.
4D	4F	.	4d	.
=93	=93	=93	=93	=93
4AA	4E	2.A	4c#	1a
4D	4D	.	4d	.
4C#	4AA	.	4e	.
4D	4D	4F#	4d	.
=94	=94	=94	=94	=94
4GG	4BBn	2.G	4d	1g
4C	4C	.	4c	.
4BB	4GG	.	4d	.
4C	4C	4E	4c	.
=95	=95	=95	=95	=95
4FF	4A	2F	4c	1a
4D	4D	.	4d	.
4C#	4A	2A	4e	.
4D	4D	.	4f#	.
=96	=96	=96	=96	=96
4GG	4G	1d	1g	1b-
4AA	8F	.	.	.
.	8E	.	.	.
4BB-	8D	.	.	.
.	8C	.	.	.
4GG	8D	.	.	.
.	8E	.	.	.
=97	=97	=97	=97	=97
4D	4d	4F	4f	1a
4E	8c	4G	8e	.
.	8B-	.	8d	.
4F	8A	2A	4c	.
.	8G	.	.	.
4D	8A	.	4f	.
.	8Bn	.	.	.
=98	=98	=98	=98	=98
2A	8c	2r	4e	1a
.	8A	.	.	.
.	2d	.	4f	.
2AA	.	2A	2e	.
.	4c#	.	.	.
=99	=99	=99	=99	=99
1D	2.d	1A	1d	2r
.	.	.	.	[2dd
.	4c	.	.	.
=100	=100	=100	=100	=100
2.GG	2.B-	1G	1d	4dd]
.	.	.	.	4cc
.	.	.	.	[2b-
4AA	4c	.	.	.
=101	=101	=101	=101	=101
2BB-	8d	1F	1r	8b-]
.	8c	.	.	8a
.	8B-	.	.	8g
.	8d	.	.	8b-
2FF	8c	.	.	8a
.	8B-	.	.	8g
.	[4c	.	.	[4a
=102	=102	=102	=102	=102
1GG	8c]	1D	2r	8a]
.	8B-	.	.	8g
.	8A	.	.	8f
.	8c	.	.	8a
.	8B-	.	4r	8g
.	8A	.	.	8f
.	4B-	.	[4g	4g
=103	=103	=103	=103	=103
1D	1A	2r	8g]	[1a
.	.	.	8f	.
.	.	.	8e	.
.	.	.	8g	.
.	.	4r	8f	.
.	.	.	8e	.
.	.	[4d	[4f	.
=104	=104	=104	=104	=104
[1AA	2r	8d]	8f]	1a]
.	.	8c	8e	.
.	.	8Bn	8d	.
.	.	8d	8f	.
.	4r	8c#	8e	.
.	.	8B	8d	.
.	4A	4c#	[4e	.
=105	=105	=105	=105	=105
1AA]	8F	1a	4e]	1r
.	8E	.	.	.
.	8D	.	2d	.
.	8F	.	.	.
.	8E	.	.	.
.	8D	.	.	.
.	4E	.	4c#	.
=106	=106	=106	=106	=106
[1DD 1D	[1F#	1A	1d	2r
.	.	.	.	2a
=107	=107	=107	=107	=107
1DD 1D]	1F#]	1r	2r	1a
.	.	.	2d	.
=108	=108	=108	=108	=108
1r	1r	1r	1d	1f
=109	=109	=109	=109	=109
1r	1r	1r	1B-	1g
=110	=110	=110	=110	=110
1r	1A	1r	2c	2.a
.	.	.	[2d	.
.	.	.	.	8g
.	.	.	.	8f
=111	=111	=111	=111	=111
1r	1A	1r	4d]	2.e
.	.	.	8A	.
.	.	.	8Bn	.
.	.	.	4c	.
.	.	.	8d	8f
.	.	.	8e	8g
=112	=112	=112	=112	=112
1r	1F	2r	4f	4a
.	.	.	4g	4bn
.	.	4f	2a	[2cc
.	.	4e	.	.
=113	=113	=113	=113	=113
1r	1G	4d	2.g	4cc]
.	.	4c	.	8bn
.	.	.	.	8a
.	.	2d	.	2b
.	.	.	4f	.
=114	=114	=114	=114	=114
1r	1A	1r	8c	1cc
.	.	.	8d	.
.	.	.	8e	.
.	.	.	8c	.
.	.	.	8d	.
.	.	.	8e	.
.	.	.	[4f	.
=115	=115	=115	=115	=115
1r	1G	1r	4f]	1b-
.	.	.	8e	.
.	.	.	8d	.
.	.	.	2e	.
=116	=116	=116	=116	=116
1D	4F	1r	1f	2.a
.	4E	.	.	.
.	4F	.	.	.
.	4G	.	.	4g
=117	=117	=117	=117	=117
2D	2A	1r	1d	2f
2BB-	2B-	.	.	[2g
=118	=118	=118	=118	=118
2C	2A	1r	2c	4g]
.	.	.	.	4f
2D	4G	.	2Bn	[2f
.	4F	.	.	.
=119	=119	=119	=119	=119
1C	1G	1r	1c	2f]
.	.	.	.	2e
=120	=120	=120	=120	=120
1r	2.F	1A	1c	8f
.	.	.	.	8c
.	.	.	.	8d
.	.	.	.	8e
.	.	.	.	8f
.	.	.	.	8g
.	4G	.	.	8a
.	.	.	.	8bn
=121	=121	=121	=121	=121
1AA	8A	1r	2.a	2.cc
.	8C	.	.	.
.	8D	.	.	.
.	8E	.	.	.
.	8F	.	.	.
.	8G	.	.	.
.	8A	.	8g	4dd
.	8Bn	.	8f	.
=122	=122	=122	=122	=122
1AA	1c	1r	1e	8cc
.	.	.	.	16ee
.	.	.	.	16ff
.	.	.	.	16gg
.	.	.	.	16ff
.	.	.	.	16ee
.	.	.	.	16dd
.	.	.	.	16ee
.	.	.	.	16dd
.	.	.	.	16cc
.	.	.	.	16b-
.	.	.	.	16cc
.	.	.	.	16b-
.	.	.	.	16a
.	.	.	.	16g
=123	=123	=123	=123	=123
1FF	2c	1r	2f	8a
.	.	.	.	16ff
.	.	.	.	16gg
.	.	.	.	16aa
.	.	.	.	16gg
.	.	.	.	16ff
.	.	.	.	16ee
.	4f	.	2a	16ff
.	.	.	.	16ee
.	.	.	.	16dd
.	.	.	.	16cc
.	4e	.	.	16dd
.	.	.	.	16cc
.	.	.	.	16bn
.	.	.	.	16a
=124	=124	=124	=124	=124
1GG	4d	1r	1g	16bn
.	.	.	.	16cc
.	.	.	.	16dd
.	.	.	.	16b
.	4e-	.	.	16cc
.	.	.	.	16dd
.	.	.	.	16ee-
.	.	.	.	16cc
.	2d	.	.	16dd
.	.	.	.	16cc
.	.	.	.	16b
.	.	.	.	16a
.	.	.	.	16b
.	.	.	.	16cc
.	.	.	.	16a
.	.	.	.	16b
=125	=125	=125	=125	=125
1AA	2c	1r	8r	2cc
.	.	.	8c	.
.	.	.	8d	.
.	.	.	8e	.
.	8r	.	8f	8r
.	8A	.	8r	8f
.	8Bn	.	4r	8g
.	8c	.	.	8a
=126	=126	=126	=126	=126
1GG	4d	1r	2r	8b-
.	.	.	.	8g
.	4c	.	.	8ee-
.	.	.	.	8dd
.	4d	.	2B-	8cc
.	.	.	.	8b-
.	4e	.	.	8a
.	.	.	.	8g
=127	=127	=127	=127	=127
1FF	4f	1r	1c	4a
.	8e	.	.	4bn
.	8d	.	.	.
.	4c	.	.	[2cc
.	4d	.	.	.
=128	=128	=128	=128	=128
2.C	1c	1r	2.e-	4cc]
.	.	.	.	8b-
.	.	.	.	8a
.	.	.	.	4g
8BB-	.	.	4f	4a
8AA	.	.	.	.
=129	=129	=129	=129	=129
4GG	2.d	1r	4g	4b-
4AA	.	.	8f	8a
.	.	.	8e	8g
4BB-	.	.	4d	4f
4FF	4c	.	4f	4a
=130	=130	=130	=130	=130
2GG	2B-	2r	2d	4g
.	.	.	.	4f
2AA	2A	2c	[2f	2cc
=131	=131	=131	=131	=131
2BB-	1G	2r	4f]	2dd
.	.	.	8e	.
.	.	.	8d	.
2C	.	2c	2e	4cc
.	.	.	.	4bb-
=132	=132	=132	=132	=132
1FF;	1F;	1c;	1f;	1a;
==	==	==	==	==
*-	*-	*-	*-	*-
!!!CDT: 1560/8/10/-1629/1/27
!!!OCY: Deutschland
!!!ODT: <1618
!!!AFR: cantus firmus canon
!!!AST: polyphony
!!!AMT: simple quadruple
!!!AIN: organ
!!!YEP: David Huron and Denis Collins
!!!YEN: Canada
!!!EEV: 1.0
!!!RDT: 1995 April 29
!!!YED: 1995 August 31
